X: 1947
T: Vâdeyle Vaslın
C: Eyyûbî Mehmed Bey
O: Turkey
F: http://compmusic.upf.edu/node/140
N: suzidil--sarki--turkaksagi--vadeyle_vaslin--eyyubi_mehmet_bey
N: makam= suzidil
N: form= sarki
N: usul= turkaksagi = 5/8
M: 5/8
L: 1/16
K: C ^1/4f ^g ^d 
Q: 1/4=120
%%MIDI tuningsystem comma53
efga fgef de | cg fedc BAGF  | EFGA Bcde fg | 
w:  ARANAĞME  |   |   | 
fe dfe4z2  | defg efde cd | Bf edcB AGFE  | 
w:   |   |   | 
EFGA BcBA GA | GF FEE4z2  | efga fgef de | 
w:   |   |  ARANAĞME  | 
cg fedc BAGF  | EFGA Bcde fg | fe dfe4z2  | 
w:   |   |   | 
defg efde cd | Bf edcB AGFE  | EFGA BcBA GA | 
w:   |   |   | 
GF FEE4z2  | e4 g2=f2 e2 | ed cde4z2  | \
w:   |  Vâ dey *  le   |  vas *  *  *  lın   | 
a4 a4 b2 | c'b agag abgf  | 
w:  ey  nahl_ i   |  dil  *  *  *  cû    | 
e4 g2=f2 e2 | ed cde4z2  | a4 a4 b2 | c'b aga4z2  | \
w:  Vâ dey *  le   |  vas *  *  *  lın   |  ey  nahl_ i   |  dil  *  *  *  cû    | 
baga b2c'2 ba | 
w:  Ben *  *  *  de *  ni   | 
ba ac'ba g=fed  | e=fga bc'ba ga | g=f fee4z2  | 
w:  şâd  *  *  *  et   |  ağ *  *  *  yâ *  *  *  re   |  kar *  *  *  şı    | 
e4 =ded2 c2 | =de =f=gef decB  | A3=d dcBA GA | 
w:  Ben de *  *  ni   |  şâd  *  *  *  et   |  ağ *  yâ *  *  *  re   | 
G=F FEE4z2  | e4 =ded2 c2 | =de =f=gef decB  | 
w:  kar *  *  *  şı    |  Ben de *  *  ni   |  şâd  *  *  *  et   | 
A3=d dcBA GA | G=F FEE4z2  | A4 A4 B2 | \
w:  ağ *  yâ *  *  *  re   |  kar *  *  *  şı    |  Güf tâ re   | 
cB AGA4z2  | 
w:  gel  *  *  *  gül   | 
A4 =d4 dc | c2 {=d}cBed cBAG  | A4 A4 B2 | \
w:  câ nâ  ri  |  cam  *  *  *  bu    |  Güf tâ re   | 
cB AGA4z2  | 
w:  gel  *  *  *  gül   | 
A4 =d4 dc | c2 {=d}cBcB AG.A2  | BAGA B2c2 d2 | \
w:  câ nâ  ri  |  cam  *  *  *  bu    |  Ben *  *  *  de *  ni   | 
ed cde2 =f2fe  | 
w:  şâd  *  *  *  et   | 
e=fga bc'ba ga | g=f fee4z2  | e4 =ded2 c2 | 
w:  ağ *  *  *  yâ *  *  *  re   |  kar *  *  *  şı    |  Ben de *  *  ni   | 
=de =f=gef decB  | A3=d dcBA GA | G=F FEE4z2  | 
w:  şâd  *  *  *  et   |  ağ *  yâ *  *  *  re   |  kar *  *  *  şı    | 
e4 =ded2 c2 | =de =f=gef decB  | A3=d dcBA GA | 
w:  Ben de *  *  ni   |  şâd  *  *  *  et   |  ağ *  yâ *  *  *  re   | 
G=F FEE4z2  | |


